libs/ui/packages/crypto-icons/src/svg/XP.svg

<svg width="24" height="24" viewBox="0 0 24 24" fill="none">
<path d="M11.0925 17.25H9.744L8.9325 14.0625L10.9163 13.026L11.562 14.871L12.0428 12.4373L14.679 11.0595L14.5335 11.7915L16.056 11.8057C16.644 11.7968 17.0993 11.598 17.4233 11.211C17.7473 10.8232 17.901 10.3035 17.8845 9.64875C17.8819 9.56447 17.8731 9.4805 17.8583 9.3975L19.9058 8.32725C20.1893 8.8485 20.2973 9.46275 20.2313 10.1685C20.1218 11.1975 19.6763 12.021 18.897 12.6382C18.1178 13.2562 17.124 13.5652 15.9173 13.5652L14.1878 13.5577L13.455 17.25H11.0925ZM11.4083 9.0075H12.7208L10.698 11.8763L5.703 14.487L7.554 11.8695L5.775 6.75H8.385L9.3075 10.3417L10.0965 9.00675H11.409H10.0965L11.505 6.75H13.1663L17.0108 6.7575C17.8845 6.7815 18.6008 7.01325 19.1603 7.45275L17.0603 8.55075C17.0087 8.54118 16.9566 8.53467 16.9043 8.53125L15.1838 8.51625L14.9588 9.64875L12.321 11.0273L12.72 9.00675L11.4083 9.0075ZM4.3395 16.464L8.33475 14.3752L6.57375 17.25H3.75L4.32525 16.4363L4.3395 16.464Z" fill="#008200"/>
</svg>

<svg width="24" height="24" viewBox="0 0 24 24" fill="none"><path fill="#008200" d="M11.093 17.25H9.744l-.812-3.187 1.984-1.037.646 1.845.48-2.434 2.637-1.377-.146.731 1.523.015q.881-.015 1.367-.595.486-.582.462-1.562a2 2 0 0 0-.027-.251l2.048-1.07q.424.781.325 1.84-.165 1.545-1.334 2.47-1.17.927-2.98.927l-1.73-.007-.732 3.692zm.315-8.242h1.313l-2.023 2.868-4.995 2.611 1.851-2.617-1.779-5.12h2.61l.922 3.592.79-1.335h1.312-1.312l1.408-2.257h1.661l3.845.008q1.31.035 2.15.695l-2.1 1.098a1 1 0 0 0-.157-.02l-1.72-.015-.225 1.133-2.638 1.378.399-2.02zM4.34 16.464l3.995-2.089-1.761 2.875H3.75l.575-.814z"/></svg>
